X:3520
T:Lancashire Clog Dance. GHW.076
O:england
M:2/4
L:1/8
Q:300
S:George H.Watson,MS,Swanton Abbott,Norfolk,1850-1880
R:Hornpipe
A:Norfolk
N:End of A part marked Fine
K:D
D2 (3FED) A2 D2|B2 (3dcB) A2 F2|G2 (3BAG) F2 (3AGF)|E>FE>D c>BA>c|
D2 (3FED) A2 D2|B2 (3dcB) A2 c2|d2 (3cBA) G2 (3AGF)|E2A2 D2 z2:|
|:B2 (3dcB) f2B2|g2 (3agf) e2 g2|f>gf>e d>cB>^A|B2 F>E D2 B,2|
B2 (3dcB) f2 B2|e2 (3gfe) d2 D2|G2 (3AGF) E2 (3GFE)|D2c2B2 z2:|


